RobotController/static/assets/robotDiagram/robotDiagram-ESC.svg

<?xml version="1.0" encoding="UTF-8"?>
<svg enable-background="new 0 0 54.001 47.987" version="1.1" viewBox="0 0 54.001 47.987" xml:space="preserve" xmlns="http://www.w3.org/2000/svg">

	
		<path d="m49.926 47.987h-45.851c-2.25 0-4.075-1.824-4.075-4.075v-39.837c0-2.25 1.825-4.075 4.075-4.075h45.851c2.251 0 4.075 1.825 4.075 4.075v39.837c0 2.251-1.824 4.075-4.075 4.075z" fill="#3B3B3C"/>
		
			
				<path d="m23.369 11.527h-18.577c-0.719 0-1.302-0.583-1.302-1.302v-4.193c0-0.719 0.583-1.302 1.302-1.302h18.578c0.719 0 1.302 0.583 1.302 1.302v4.193c-1e-3 0.719-0.584 1.302-1.303 1.302z" fill="#2D2D2D"/>
				<path d="m18.439 10.995h-8.717c-0.59 0-1.068-0.478-1.068-1.068v-3.597c0-0.59 0.478-1.068 1.068-1.068h8.717c0.59 0 1.068 0.478 1.068 1.068v3.597c0 0.59-0.478 1.068-1.068 1.068z" fill="#191919" stroke="#191919" stroke-miterlimit="10"/>
			
			
				<path d="m49.21 11.527h-18.578c-0.719 0-1.302-0.583-1.302-1.302v-4.193c0-0.719 0.583-1.302 1.302-1.302h18.578c0.719 0 1.302 0.583 1.302 1.302v4.193c-1e-3 0.719-0.583 1.302-1.302 1.302z" fill="#2D2D2D"/>
				<path d="m44.28 10.995h-8.717c-0.59 0-1.068-0.478-1.068-1.068v-3.597c0-0.59 0.478-1.068 1.068-1.068h8.717c0.59 0 1.068 0.478 1.068 1.068v3.597c-1e-3 0.59-0.479 1.068-1.068 1.068z" fill="#191919" stroke="#191919" stroke-miterlimit="10"/>
			
			
				<path d="m23.369 22.104h-18.577c-0.719 0-1.302-0.583-1.302-1.302v-4.193c0-0.719 0.583-1.302 1.302-1.302h18.578c0.719 0 1.302 0.583 1.302 1.302v4.193c-1e-3 0.719-0.584 1.302-1.303 1.302z" fill="#2D2D2D"/>
				<path d="m18.439 21.572h-8.717c-0.59 0-1.068-0.478-1.068-1.068v-3.597c0-0.59 0.478-1.068 1.068-1.068h8.717c0.59 0 1.068 0.478 1.068 1.068v3.597c0 0.59-0.478 1.068-1.068 1.068z" fill="#191919" stroke="#191919" stroke-miterlimit="10"/>
			
			
				<path d="m49.21 22.104h-18.578c-0.719 0-1.302-0.583-1.302-1.302v-4.193c0-0.719 0.583-1.302 1.302-1.302h18.578c0.719 0 1.302 0.583 1.302 1.302v4.193c-1e-3 0.719-0.583 1.302-1.302 1.302z" fill="#2D2D2D"/>
				<path d="m44.28 21.572h-8.717c-0.59 0-1.068-0.478-1.068-1.068v-3.597c0-0.59 0.478-1.068 1.068-1.068h8.717c0.59 0 1.068 0.478 1.068 1.068v3.597c-1e-3 0.59-0.479 1.068-1.068 1.068z" fill="#191919" stroke="#191919" stroke-miterlimit="10"/>
			
			
				<path d="m23.369 32.68h-18.577c-0.719 0-1.302-0.583-1.302-1.302v-4.193c0-0.719 0.583-1.302 1.302-1.302h18.578c0.719 0 1.302 0.583 1.302 1.302v4.193c-1e-3 0.72-0.584 1.302-1.303 1.302z" fill="#2D2D2D"/>
				<path d="m18.439 32.148h-8.717c-0.59 0-1.068-0.478-1.068-1.068v-3.597c0-0.59 0.478-1.068 1.068-1.068h8.717c0.59 0 1.068 0.478 1.068 1.068v3.597c0 0.59-0.478 1.068-1.068 1.068z" fill="#191919" stroke="#191919" stroke-miterlimit="10"/>
			
			
				<path d="m49.21 32.68h-18.578c-0.719 0-1.302-0.583-1.302-1.302v-4.193c0-0.719 0.583-1.302 1.302-1.302h18.578c0.719 0 1.302 0.583 1.302 1.302v4.193c-1e-3 0.72-0.583 1.302-1.302 1.302z" fill="#2D2D2D"/>
				<path d="m44.28 32.148h-8.717c-0.59 0-1.068-0.478-1.068-1.068v-3.597c0-0.59 0.478-1.068 1.068-1.068h8.717c0.59 0 1.068 0.478 1.068 1.068v3.597c-1e-3 0.59-0.479 1.068-1.068 1.068z" fill="#191919" stroke="#191919" stroke-miterlimit="10"/>
			
			
				<path d="m23.369 43.257h-18.577c-0.719 0-1.302-0.583-1.302-1.302v-4.193c0-0.719 0.583-1.302 1.302-1.302h18.578c0.719 0 1.302 0.583 1.302 1.302v4.193c-1e-3 0.719-0.584 1.302-1.303 1.302z" fill="#2D2D2D"/>
				<path d="m18.439 42.725h-8.717c-0.59 0-1.068-0.478-1.068-1.068v-3.597c0-0.59 0.478-1.068 1.068-1.068h8.717c0.59 0 1.068 0.478 1.068 1.068v3.597c0 0.59-0.478 1.068-1.068 1.068z" fill="#191919" stroke="#191919" stroke-miterlimit="10"/>
			
			
				<path d="m49.21 43.257h-18.578c-0.719 0-1.302-0.583-1.302-1.302v-4.193c0-0.719 0.583-1.302 1.302-1.302h18.578c0.719 0 1.302 0.583 1.302 1.302v4.193c-1e-3 0.719-0.583 1.302-1.302 1.302z" fill="#2D2D2D"/>
				<path d="m44.28 42.725h-8.717c-0.59 0-1.068-0.478-1.068-1.068v-3.597c0-0.59 0.478-1.068 1.068-1.068h8.717c0.59 0 1.068 0.478 1.068 1.068v3.597c-1e-3 0.59-0.479 1.068-1.068 1.068z" fill="#191919" stroke="#191919" stroke-miterlimit="10"/>
			
		
	


</svg>

<?xml version="1.0" encoding="iso-8859-1"?>
<!-- Generator: Adobe Illustrator 24.0.1, SVG Export Plug-In . SVG Version: 6.00 Build 0)  -->
<svg version="1.1" xmlns="http://www.w3.org/2000/svg" xmlns:xlink="http://www.w3.org/1999/xlink" x="0px" y="0px"
	 viewBox="0 0 54.001 47.987" style="enable-background:new 0 0 54.001 47.987;" xml:space="preserve">
<g id="ESC">
	<g>
		<path style="fill:#3B3B3C;" d="M49.926,47.987H4.075C1.825,47.987,0,46.163,0,43.912V4.075C0,1.825,1.825,0,4.075,0h45.851
			c2.251,0,4.075,1.825,4.075,4.075v39.837C54.001,46.163,52.177,47.987,49.926,47.987z"/>
		<g>
			<g>
				<path style="fill:#2D2D2D;" d="M23.369,11.527H4.792c-0.719,0-1.302-0.583-1.302-1.302V6.032c0-0.719,0.583-1.302,1.302-1.302
					h18.578c0.719,0,1.302,0.583,1.302,1.302v4.193C24.671,10.944,24.088,11.527,23.369,11.527z"/>
				<path style="fill:#191919;stroke:#191919;stroke-miterlimit:10;" d="M18.439,10.995H9.722c-0.59,0-1.068-0.478-1.068-1.068V6.33
					c0-0.59,0.478-1.068,1.068-1.068h8.717c0.59,0,1.068,0.478,1.068,1.068v3.597C19.507,10.517,19.029,10.995,18.439,10.995z"/>
			</g>
			<g>
				<path style="fill:#2D2D2D;" d="M49.21,11.527H30.632c-0.719,0-1.302-0.583-1.302-1.302V6.032c0-0.719,0.583-1.302,1.302-1.302
					H49.21c0.719,0,1.302,0.583,1.302,1.302v4.193C50.511,10.944,49.929,11.527,49.21,11.527z"/>
				<path style="fill:#191919;stroke:#191919;stroke-miterlimit:10;" d="M44.28,10.995h-8.717c-0.59,0-1.068-0.478-1.068-1.068V6.33
					c0-0.59,0.478-1.068,1.068-1.068h8.717c0.59,0,1.068,0.478,1.068,1.068v3.597C45.347,10.517,44.869,10.995,44.28,10.995z"/>
			</g>
			<g>
				<path style="fill:#2D2D2D;" d="M23.369,22.104H4.792c-0.719,0-1.302-0.583-1.302-1.302v-4.193c0-0.719,0.583-1.302,1.302-1.302
					h18.578c0.719,0,1.302,0.583,1.302,1.302v4.193C24.671,21.521,24.088,22.104,23.369,22.104z"/>
				<path style="fill:#191919;stroke:#191919;stroke-miterlimit:10;" d="M18.439,21.572H9.722c-0.59,0-1.068-0.478-1.068-1.068
					v-3.597c0-0.59,0.478-1.068,1.068-1.068h8.717c0.59,0,1.068,0.478,1.068,1.068v3.597C19.507,21.094,19.029,21.572,18.439,21.572
					z"/>
			</g>
			<g>
				<path style="fill:#2D2D2D;" d="M49.21,22.104H30.632c-0.719,0-1.302-0.583-1.302-1.302v-4.193c0-0.719,0.583-1.302,1.302-1.302
					H49.21c0.719,0,1.302,0.583,1.302,1.302v4.193C50.511,21.521,49.929,22.104,49.21,22.104z"/>
				<path style="fill:#191919;stroke:#191919;stroke-miterlimit:10;" d="M44.28,21.572h-8.717c-0.59,0-1.068-0.478-1.068-1.068
					v-3.597c0-0.59,0.478-1.068,1.068-1.068h8.717c0.59,0,1.068,0.478,1.068,1.068v3.597C45.347,21.094,44.869,21.572,44.28,21.572z
					"/>
			</g>
			<g>
				<path style="fill:#2D2D2D;" d="M23.369,32.68H4.792c-0.719,0-1.302-0.583-1.302-1.302v-4.193c0-0.719,0.583-1.302,1.302-1.302
					h18.578c0.719,0,1.302,0.583,1.302,1.302v4.193C24.671,32.098,24.088,32.68,23.369,32.68z"/>
				<path style="fill:#191919;stroke:#191919;stroke-miterlimit:10;" d="M18.439,32.148H9.722c-0.59,0-1.068-0.478-1.068-1.068
					v-3.597c0-0.59,0.478-1.068,1.068-1.068h8.717c0.59,0,1.068,0.478,1.068,1.068v3.597C19.507,31.67,19.029,32.148,18.439,32.148z
					"/>
			</g>
			<g>
				<path style="fill:#2D2D2D;" d="M49.21,32.68H30.632c-0.719,0-1.302-0.583-1.302-1.302v-4.193c0-0.719,0.583-1.302,1.302-1.302
					H49.21c0.719,0,1.302,0.583,1.302,1.302v4.193C50.511,32.098,49.929,32.68,49.21,32.68z"/>
				<path style="fill:#191919;stroke:#191919;stroke-miterlimit:10;" d="M44.28,32.148h-8.717c-0.59,0-1.068-0.478-1.068-1.068
					v-3.597c0-0.59,0.478-1.068,1.068-1.068h8.717c0.59,0,1.068,0.478,1.068,1.068v3.597C45.347,31.67,44.869,32.148,44.28,32.148z"
					/>
			</g>
			<g>
				<path style="fill:#2D2D2D;" d="M23.369,43.257H4.792c-0.719,0-1.302-0.583-1.302-1.302v-4.193c0-0.719,0.583-1.302,1.302-1.302
					h18.578c0.719,0,1.302,0.583,1.302,1.302v4.193C24.671,42.674,24.088,43.257,23.369,43.257z"/>
				<path style="fill:#191919;stroke:#191919;stroke-miterlimit:10;" d="M18.439,42.725H9.722c-0.59,0-1.068-0.478-1.068-1.068
					V38.06c0-0.59,0.478-1.068,1.068-1.068h8.717c0.59,0,1.068,0.478,1.068,1.068v3.597C19.507,42.247,19.029,42.725,18.439,42.725z
					"/>
			</g>
			<g>
				<path style="fill:#2D2D2D;" d="M49.21,43.257H30.632c-0.719,0-1.302-0.583-1.302-1.302v-4.193c0-0.719,0.583-1.302,1.302-1.302
					H49.21c0.719,0,1.302,0.583,1.302,1.302v4.193C50.511,42.674,49.929,43.257,49.21,43.257z"/>
				<path style="fill:#191919;stroke:#191919;stroke-miterlimit:10;" d="M44.28,42.725h-8.717c-0.59,0-1.068-0.478-1.068-1.068
					V38.06c0-0.59,0.478-1.068,1.068-1.068h8.717c0.59,0,1.068,0.478,1.068,1.068v3.597C45.347,42.247,44.869,42.725,44.28,42.725z"
					/>
			</g>
		</g>
	</g>
</g>
<g id="Layer_1">
</g>
</svg>
